X: 0712
T: CHARLESTON GALS
B: Oliver Ditson "The Boston Collection of Instrumental Music" 1910 p.71 #2
F: http://conquest.imslp.info/files/imglnks/usimg/8/8f/IMSLP175643-PMLP309456-bostoncollection00bost_bw.pdf
M: 2/4
L: 1/8
K: Bb
F |\
FF AB | cd BF | BB df | ed c2 |\
FF AB | cd BF | Ac GG | AF F2 |]
f2f>f | ecc2 | e2e>e | dB B2 |\
AF f2 | ec AF/F/ | c/B/ A/G/ F/ e e/ | dB/B/ B2 |]

%%sep 1 1 500
%%sep 1 1 500
